X:1
T:House Springs, 86.86.86 D
T:House Springs, 86.86.86 D
T:William James Kirkpatrick, 1890
T:Public Domain Courtesy of the Cyber Hymnal™
C:William James Kirkpatrick, 1890
Z:Public Domain
Z:Courtesy of the Cyber Hymnal™
%%score ( 1 2 ) ( 3 4 )
L:1/8
Q:1/4=110
M:4/4
K:Ab
V:1 treble 
V:2 treble 
V:3 bass 
V:4 bass 
V:1
 [CE]2 | [CE]2 [CA]2 [CA]2 [Ec]2 | [Ec]3 [DB] [CA]2 [CE]2 | [DF]2 [FA]2 [Fd]2 [Fd]2 | [Ec]6 (cd) | %5
 [Ee]2 [Ac]2 [Ac]2 [GB]2 | [FA]2 [FA]2 [FA]2 [DF]2 | [CE]2 [EA]2 [EA]2 [Ec]2 | [EB]6 (Bc) | %9
 [Ed]2 [Ed]2 [Ec]2 [Ec]2 | [EB]2 [EB]2 [EA]2 [EA]2 | [Fd]2 [Fd]2 [Gd]2 [Ge]2 | [Ec]6 (cd) | %13
 [Ee]2 [Ec]2 [Ec]2 [EB]2 | [FA]2 [DF]2 !fermata![Fd]2 [DF]2 | [CE]2 [Ec]2 [EB]3 [EA] | %16
 !fermata![EA]4 z [CE] [CA]>[DB] | [Ec]4- [Ec]>[GB] [Ac]>[Bd] | [ce]6 [Ae]2 | %19
 [Ed]2 [Ed]2 [Ec]2 c2 | [GB]4- [GB][GB] [Ac]>[Bd] | [ce]4- [ce]>[Ac] [GB]>[_Gc] | [Fd]6 [DF]2 | %23
 [CE]2 [Ec]2 [EB]3 [EA] | [EA]6 |] %25
V:2
 x2 | x8 | x8 | x8 | x6 E2 | x8 | x8 | x8 | x6 E2 | x8 | x8 | x8 | x6 E2 | x8 | x8 | x8 | x8 | x8 | %18
 x8 | x6 (EA) | x8 | x8 | x8 | x8 | x6 |] %25
V:3
 [A,,A,]2 | [A,,A,]2 [A,,E,]2 [A,,E,]2 [A,,A,]2 | [E,B,]3 [E,G,] [A,,A,]2 [A,,A,]2 | %3
 [D,A,]2 [D,A,]2 A,2 A,2 | A,6 (A,B,) | [A,C]2 [A,E]2 [E,E]2 [E,D]2 | %6
 [F,C]2 [F,C]2 [D,D]2 [D,A,]2 | [E,A,]2 [E,C]2 [C,A,]2 [A,,A,]2 | [E,G,]6 (G,A,) | %9
 [E,B,]2 [E,B,]2 [E,A,]2 [E,A,]2 | [E,D]2 [E,D]2 [A,C]2 [A,C]2 | [D,A,]2 [D,D]2 [E,B,]2 [E,B,]2 | %12
 A,6 (A,B,) | [A,C]2 A,2 [C,A,]2 [C,A,]2 | [D,A,]2 [D,A,]2 !fermata![D,A,]2 [D,A,]2 | %15
 [E,A,]2 [E,A,]2 [E,D]3 [A,,A,C] | !fermata![A,,A,C]4 z4 | z [A,,A,] [A,,A,]>[A,,A,] [A,,A,] z3 | %18
 z A, A,>A, A,2 [A,C]2 | [G,B,]2 [G,B,]2 A,2 [A,C]2 | [E,E]4- [E,E] z3 | %21
 z [A,E] [A,E]>[A,E] [A,E] z3 | z [D,A,] [D,A,]>[D,A,] [D,A,]2 [D,A,]2 | %23
 [E,A,]2 [E,A,]2 [E,C]3 [A,,A,C] | [A,,A,C]6 |] %25
V:4
 x2 | x8 | x8 | x4 (D,E,) (F,G,) | A,6 A,2 | x8 | x8 | x8 | x6 E,2 | x8 | x8 | x8 | A,6 A,2 | %13
 x2 A,2 x4 | x8 | x8 | x8 | x8 | x A, A,>A, A,2 x2 | x4 A,2 x2 | x8 | x8 | x8 | x8 | x6 |] %25

